X:994
L:1/8
M:4/4
K:A
|: eAcA eAAf | eAcA BFFf | eAcA eAcA |1 B/B/B cA BFFf :|2 B/B/B cA BF(3Bcd |: cAcB cAAB | 
 cAcA BFBd | cAcA EAcA |1 B/B/B cA BFBd :|

